X: 1
T: Kittens on Catnip
C: Dave Goldman
O: Portland, Oregon
%R: reel
Z: Collected and edited 2014 by John Chambers <jc:trillian.mit.edu>
B: GEMS The Best of the Country Dance and Song Society Diamond Jubilee Music, Dance and Song Contest 1993 p.71
M: C|
L: 1/8
K: D
% - - - - - - - - - - - - - - - - - - - - - - - - -
|:\
"D"d2A2 "C"=cBAG | "D"A2FG- "C"G2E2 | "D"F2D2 "F"=FGAB | "G"GAB2 "C"=c2Bc |
"D"d2A2 "C"=cBAG | "D"A2FG- "C"G2E2 | "D"F2D2 "F"AGF=F |1 "C"E2=C"D"D- D3 z :|2 "C"E2=C"D"D- D3 ||
|: F |\
"C"G2E=C- CGEC | "D"FDAD BDA2 | "C"G2E=C- CGEC | "D"FDAD F3A |
"C"G2E=C- CGEC | "D"FDAD BDA2 | "F"AG=FE "G"GFED |1 "C"E2G2 "D"A3 :|2 "C"E2G2 "E"^G2 (3ABc |]
% - - - - - - - - - - - - - - - - - - - - - - - - -
